assets/img/nysds-logo-stacked-white.svg

<svg width="974" height="209" viewBox="0 0 974 209" fill="none" xmlns="http://www.w3.org/2000/svg">
<path d="M287.166 95.8714L248.981 42.0771V95.8714H231.931V15.7803H249.462L286.566 67.654V15.7803H303.617V95.8714H287.166Z" fill="white"/>
<path d="M340.002 36.4336C357.292 36.4336 369.061 49.401 369.061 68.3737V71.7357H325.952C326.913 79.0599 332.798 85.1849 342.643 85.1849C348.046 85.1849 354.411 83.0234 358.133 79.4206L364.857 89.2669C358.973 94.6706 349.968 97.3125 340.962 97.3125C323.311 97.3125 309.982 85.4245 309.982 66.8125C309.982 50.0013 322.351 36.4336 340.002 36.4336ZM325.713 61.4089H354.291C353.93 55.8854 350.088 48.5612 340.002 48.5612C330.515 48.5612 326.433 55.6458 325.713 61.4089Z" fill="white"/>
<path d="M425.377 95.8714L413.129 56.3662L400.881 95.8714H384.55L366.899 37.874H382.75L393.557 76.8988L406.285 37.874H419.853L432.582 76.8988L443.388 37.874H459.238L441.587 95.8714H425.377Z" fill="white"/>
<path d="M501.028 95.8714V63.0902L470.169 15.7803H489.621L509.554 47.9613L529.247 15.7803H548.699L518.079 63.0902V95.8714H501.028Z" fill="white"/>
<path d="M531.888 66.8125C531.888 50.362 543.415 36.4336 562.507 36.4336C581.72 36.4336 593.247 50.362 593.247 66.8125C593.247 83.3828 581.72 97.3125 562.507 97.3125C543.415 97.3125 531.888 83.3828 531.888 66.8125ZM577.397 66.8125C577.397 57.8073 571.993 50.0013 562.507 50.0013C553.021 50.0013 547.738 57.8073 547.738 66.8125C547.738 75.9388 553.021 83.7435 562.507 83.7435C571.993 83.7435 577.397 75.9388 577.397 66.8125Z" fill="white"/>
<path d="M599.973 95.8714V37.874H615.223V45.7998C619.305 40.6357 626.509 36.5537 633.714 36.5537V51.443C632.633 51.2035 631.193 51.0824 629.512 51.0824C624.467 51.0824 617.743 53.8441 615.223 57.5667V95.8714H599.973Z" fill="white"/>
<path d="M675.644 95.8714L660.274 73.5368L653.311 80.9821V95.8714H638.061V15.7803H653.311V63.6904L675.284 37.874H694.016L671.081 64.1709L694.736 95.8714H675.644Z" fill="white"/>
<path d="M721.875 71.616C727.519 77.5002 736.285 82.4233 747.332 82.4233C756.698 82.4233 761.26 77.9793 761.26 73.4168C761.26 67.4129 754.297 65.3713 745.05 63.2098C731.962 60.2085 715.151 56.6056 715.151 38.715C715.151 25.3869 726.678 14.5796 745.531 14.5796C758.259 14.5796 768.825 18.422 776.75 25.7463L767.264 38.2345C760.78 32.2306 752.135 29.4689 744.329 29.4689C736.644 29.4689 732.562 32.8309 732.562 37.6343C732.562 43.0379 739.286 44.7189 748.532 46.8804C761.741 49.8817 778.552 53.8439 778.552 71.616C778.552 86.2645 768.105 97.3127 746.491 97.3127C731.121 97.3127 720.074 92.1486 712.509 84.5835L721.875 71.616Z" fill="white"/>
<path d="M788.074 81.4622V51.2031H778.469V37.8737H788.074V22.0234H803.444V37.8737H815.212V51.2031H803.444V77.3789C803.444 80.9818 805.366 83.7435 808.728 83.7435C811.009 83.7435 813.171 82.9023 814.01 82.0625L817.253 93.5898C814.971 95.6315 810.889 97.3125 804.525 97.3125C793.839 97.3125 788.074 91.7891 788.074 81.4622Z" fill="white"/>
<path d="M856.651 95.8711V89.8672C852.688 94.5508 845.845 97.3125 838.28 97.3125C829.034 97.3125 818.106 91.0677 818.106 78.1003C818.106 64.5313 829.034 59.6081 838.28 59.6081C845.965 59.6081 852.808 62.0091 856.651 66.6927V58.6471C856.651 52.763 851.608 48.9206 843.923 48.9206C837.679 48.9206 831.915 51.2031 826.992 55.7656L821.229 45.5586C828.313 39.3151 837.438 36.4336 846.565 36.4336C859.773 36.4336 871.901 41.7161 871.901 58.4076V95.8711H856.651ZM856.651 74.7383C854.13 71.375 849.326 69.694 844.403 69.694C838.399 69.694 833.476 72.9362 833.476 78.4596C833.476 83.8633 838.399 86.9857 844.403 86.9857C849.326 86.9857 854.13 85.3047 856.651 81.9427V74.7383Z" fill="white"/>
<path d="M885.23 81.4622V51.2031H875.625V37.8737H885.23V22.0234H900.6V37.8737H912.368V51.2031H900.6V77.3789C900.6 80.9818 902.522 83.7435 905.884 83.7435C908.165 83.7435 910.327 82.9023 911.167 82.0625L914.409 93.5898C912.128 95.6315 908.046 97.3125 901.681 97.3125C890.995 97.3125 885.23 91.7891 885.23 81.4622Z" fill="white"/>
<path d="M944.549 36.4336C961.839 36.4336 973.607 49.401 973.607 68.3737V71.7357H930.499C931.46 79.0599 937.344 85.1849 947.189 85.1849C952.593 85.1849 958.958 83.0234 962.68 79.4206L969.404 89.2669C963.52 94.6706 954.515 97.3125 945.508 97.3125C927.857 97.3125 914.529 85.4245 914.529 66.8125C914.529 50.0013 926.898 36.4336 944.549 36.4336ZM930.26 61.4089H958.838C958.477 55.8854 954.635 48.5612 944.549 48.5612C935.062 48.5612 930.98 55.6458 930.26 61.4089Z" fill="white"/>
<path d="M233.204 187.539V115.125H257.957C280.431 115.125 295.088 130.867 295.088 151.387C295.088 172.014 280.431 187.539 257.957 187.539H233.204ZM242.216 179.505H257.957C275.545 179.505 285.75 166.911 285.75 151.387C285.75 135.753 275.871 123.158 257.957 123.158H242.216V179.505Z" fill="white"/>
<path d="M325.703 133.799C341.554 133.799 350.892 146.175 350.892 161.917V163.98H308.442C309.093 173.859 316.041 182.111 327.333 182.111C333.304 182.111 339.383 179.723 343.509 175.489L347.417 180.808C342.206 186.019 335.149 188.842 326.573 188.842C311.047 188.842 299.864 177.66 299.864 161.266C299.864 146.066 310.722 133.799 325.703 133.799ZM308.442 158.009H342.857C342.749 150.191 337.538 140.529 325.595 140.529C314.413 140.529 308.876 149.974 308.442 158.009Z" fill="white"/>
<path d="M358.272 174.729C361.746 178.745 368.37 182.219 375.535 182.219C383.569 182.219 387.911 178.637 387.911 173.533C387.911 167.78 381.506 165.934 374.449 164.197C365.546 162.134 355.45 159.746 355.45 148.889C355.45 140.747 362.506 133.799 374.992 133.799C383.894 133.799 390.192 137.164 394.426 141.398L390.625 147.043C387.477 143.243 381.723 140.421 374.992 140.421C367.827 140.421 363.375 143.678 363.375 148.346C363.375 153.448 369.347 155.078 376.186 156.706C385.306 158.769 395.837 161.374 395.837 172.991C395.837 181.785 388.781 188.842 375.209 188.842C366.633 188.842 359.358 186.236 354.039 180.591L358.272 174.729Z" fill="white"/>
<path d="M403.002 120.77C403.002 117.73 405.499 115.342 408.43 115.342C411.47 115.342 413.967 117.73 413.967 120.77C413.967 123.811 411.47 126.308 408.43 126.308C405.499 126.308 403.002 123.811 403.002 120.77ZM404.413 187.539V135.101H412.555V187.539H404.413Z" fill="white"/>
<path d="M427.103 194.921C431.445 200.132 436.658 202.087 444.148 202.087C452.833 202.087 460.977 197.852 460.977 186.345V178.854C457.177 184.174 450.771 188.19 443.388 188.19C429.709 188.19 420.046 177.985 420.046 161.049C420.046 144.221 429.6 133.799 443.388 133.799C450.445 133.799 456.743 137.273 460.977 143.026V135.101H469.119V186.019C469.119 203.39 456.96 208.818 444.148 208.818C435.246 208.818 429.166 207.081 422.978 201.002L427.103 194.921ZM460.977 149.54C458.154 144.981 451.856 141.072 445.342 141.072C434.812 141.072 428.514 149.432 428.514 161.049C428.514 172.556 434.812 181.025 445.342 181.025C451.856 181.025 458.154 177.007 460.977 172.448V149.54Z" fill="white"/>
<path d="M515.259 187.539V153.232C515.259 144.003 510.589 141.072 503.533 141.072C497.128 141.072 491.048 144.981 488.008 149.214V187.539H479.865V135.101H488.008V142.701C491.7 138.358 498.865 133.799 506.681 133.799C517.647 133.799 523.401 139.335 523.401 150.734V187.539H515.259Z" fill="white"/>
<path d="M552.062 170.495C556.839 175.814 564.655 180.808 574.86 180.808C587.78 180.808 591.905 173.86 591.905 168.322C591.905 159.637 583.112 157.249 573.557 154.644C561.941 151.604 549.021 148.347 549.021 134.124C549.021 122.181 559.661 114.039 573.883 114.039C584.957 114.039 593.534 117.73 599.613 124.137L594.185 130.759C588.757 124.788 581.158 122.073 573.232 122.073C564.547 122.073 558.359 126.742 558.359 133.581C558.359 140.855 566.718 143.026 575.947 145.523C587.78 148.673 601.243 152.364 601.243 167.562C601.243 178.094 594.077 188.842 574.534 188.842C561.941 188.842 552.712 184.065 546.741 177.334L552.062 170.495Z" fill="white"/>
<path d="M606.237 200.676C607.431 201.219 609.385 201.545 610.688 201.545C614.27 201.545 616.66 200.35 618.504 196.008L621.979 188.082L600.049 135.101H608.842L626.322 178.094L643.693 135.101H652.595L626.322 198.179C623.173 205.778 617.854 208.71 610.905 208.818C609.168 208.818 606.454 208.493 604.934 208.058L606.237 200.676Z" fill="white"/>
<path d="M656.286 174.729C659.76 178.745 666.382 182.219 673.548 182.219C681.582 182.219 685.924 178.637 685.924 173.533C685.924 167.78 679.519 165.934 672.461 164.197C663.559 162.134 653.463 159.746 653.463 148.889C653.463 140.747 660.519 133.799 673.005 133.799C681.907 133.799 688.204 137.164 692.438 141.398L688.638 147.043C685.49 143.243 679.736 140.421 673.005 140.421C665.839 140.421 661.388 143.678 661.388 148.346C661.388 153.448 667.359 155.078 674.199 156.706C683.319 158.769 693.849 161.374 693.849 172.991C693.849 181.785 686.793 188.842 673.222 188.842C664.645 188.842 657.371 186.236 652.052 180.591L656.286 174.729Z" fill="white"/>
<path d="M705.683 176.574V142.266H696.998V135.101H705.683V120.771H713.826V135.101H724.465V142.266H713.826V174.837C713.826 178.745 715.563 181.568 719.145 181.568C721.425 181.568 723.596 180.591 724.682 179.397L727.07 185.476C725.008 187.43 722.077 188.842 717.3 188.842C709.592 188.842 705.683 184.391 705.683 176.574Z" fill="white"/>
<path d="M753.777 133.799C769.627 133.799 778.965 146.175 778.965 161.917V163.98H736.515C737.166 173.859 744.114 182.111 755.406 182.111C761.377 182.111 767.456 179.723 771.583 175.489L775.491 180.808C770.279 186.019 763.222 188.842 754.646 188.842C739.12 188.842 727.938 177.66 727.938 161.266C727.938 146.066 738.795 133.799 753.777 133.799ZM736.515 158.009H770.93C770.822 150.191 765.611 140.529 753.669 140.529C742.486 140.529 736.949 149.974 736.515 158.009Z" fill="white"/>
<path d="M849.858 187.539V151.93C849.858 145.306 846.927 141.072 840.196 141.072C834.768 141.072 829.013 144.981 826.299 149.106V187.539H818.157V151.93C818.157 145.306 815.334 141.072 808.494 141.072C803.174 141.072 797.529 144.981 794.706 149.214V187.539H786.563V135.101H794.706V142.701C796.878 139.335 803.934 133.799 811.643 133.799C819.677 133.799 824.236 138.141 825.756 143.569C828.687 138.792 835.745 133.799 843.344 133.799C852.898 133.799 858 139.118 858 149.649V187.539H849.858Z" fill="white"/>
<path d="M205 102.5C205 159.109 159.109 205 102.5 205C45.8908 205 0 159.109 0 102.5C0 45.8908 45.8908 0 102.5 0C159.109 0 205 45.8908 205 102.5Z" fill="white"/>
<path d="M76.6599 107.894L43.3349 74.5558V45.4713H159.629L204.285 90.4372C198.299 39.5111 155.016 0 102.5 0C45.8907 0 0 45.908 0 102.538C0 125.627 7.63235 146.93 20.5051 164.07" fill="#245FC2"/>
<path d="M159.63 45.3945V161.733H130.557V95.0323L41.0723 184.55C58.1913 197.39 79.4569 205 102.5 205C159.109 205 205 159.092 205 102.462C205 98.3562 204.732 94.3158 204.262 90.3366L159.63 45.3945Z" fill="#0E324F"/>
<path d="M43.3291 74.5552H109.979L76.6541 107.893L43.3291 74.5552Z" fill="#0E324F"/>
</svg>

<svg xmlns="http://www.w3.org/2000/svg" width="974" height="209" fill="none" viewBox="0 0 974 209"><path fill="#fff" d="m287.166 95.871-38.185-53.794v53.794h-17.05v-80.09h17.531l37.104 51.873V15.78h17.051v80.091zM340.002 36.434c17.29 0 29.059 12.967 29.059 31.94v3.362h-43.109c.961 7.324 6.846 13.449 16.691 13.449 5.403 0 11.768-2.162 15.49-5.764l6.724 9.846c-5.884 5.404-14.889 8.046-23.895 8.046-17.651 0-30.98-11.889-30.98-30.5 0-16.812 12.369-30.38 30.02-30.38m-14.289 24.975h28.578c-.361-5.524-4.203-12.848-14.289-12.848-9.487 0-13.569 7.085-14.289 12.848M425.377 95.871l-12.248-39.505-12.248 39.505H384.55l-17.651-57.997h15.851l10.807 39.025 12.728-39.025h13.568l12.729 39.025 10.806-39.025h15.85l-17.651 57.997zM501.028 95.871v-32.78l-30.859-47.31h19.452l19.933 32.18 19.693-32.18h19.452l-30.62 47.31v32.78z"/><path fill="#fff" d="M531.888 66.813c0-16.451 11.527-30.38 30.619-30.38 19.213 0 30.74 13.929 30.74 30.38 0 16.57-11.527 30.5-30.74 30.5-19.092 0-30.619-13.93-30.619-30.5m45.509 0c0-9.006-5.404-16.812-14.89-16.812s-14.769 7.806-14.769 16.812c0 9.126 5.283 16.93 14.769 16.93s14.89-7.804 14.89-16.93M599.973 95.871V37.874h15.25V45.8c4.082-5.164 11.286-9.246 18.491-9.246v14.889c-1.081-.24-2.521-.36-4.202-.36-5.045 0-11.769 2.761-14.289 6.484V95.87zM675.644 95.871l-15.37-22.334-6.963 7.445v14.89h-15.25V15.78h15.25v47.91l21.973-25.816h18.732l-22.935 26.297 23.655 31.7zM721.875 71.616c5.644 5.884 14.41 10.807 25.457 10.807 9.366 0 13.928-4.444 13.928-9.006 0-6.004-6.963-8.046-16.21-10.207-13.088-3.001-29.899-6.604-29.899-24.495 0-13.328 11.527-24.135 30.38-24.135 12.728 0 23.294 3.842 31.219 11.166l-9.486 12.488c-6.484-6.003-15.129-8.765-22.935-8.765-7.685 0-11.767 3.362-11.767 8.165 0 5.404 6.724 7.085 15.97 9.246 13.209 3.002 30.02 6.964 30.02 24.736 0 14.648-10.447 25.697-32.061 25.697-15.37 0-26.417-5.164-33.982-12.73zM788.074 81.462V51.203h-9.605v-13.33h9.605v-15.85h15.37v15.85h11.768v13.33h-11.768V77.38c0 3.603 1.922 6.364 5.284 6.364 2.281 0 4.443-.84 5.282-1.68l3.243 11.527c-2.282 2.041-6.364 3.722-12.728 3.722-10.686 0-16.451-5.523-16.451-15.85M856.651 95.871v-6.004c-3.963 4.684-10.806 7.445-18.371 7.445-9.246 0-20.174-6.244-20.174-19.212 0-13.569 10.928-18.492 20.174-18.492 7.685 0 14.528 2.401 18.371 7.085v-8.046c0-5.884-5.043-9.726-12.728-9.726-6.244 0-12.008 2.282-16.931 6.845l-5.763-10.207c7.084-6.244 16.209-9.125 25.336-9.125 13.208 0 25.336 5.282 25.336 21.974V95.87zm0-21.133c-2.521-3.363-7.325-5.044-12.248-5.044-6.004 0-10.927 3.242-10.927 8.766 0 5.403 4.923 8.526 10.927 8.526 4.923 0 9.727-1.681 12.248-5.043zM885.23 81.462V51.203h-9.605v-13.33h9.605v-15.85h15.37v15.85h11.768v13.33H900.6V77.38c0 3.603 1.922 6.364 5.284 6.364 2.281 0 4.443-.84 5.283-1.68l3.242 11.527c-2.281 2.041-6.363 3.722-12.728 3.722-10.686 0-16.451-5.523-16.451-15.85M944.549 36.434c17.29 0 29.058 12.967 29.058 31.94v3.362h-43.108c.961 7.324 6.845 13.449 16.69 13.449 5.404 0 11.769-2.162 15.491-5.764l6.724 9.846c-5.884 5.404-14.889 8.046-23.896 8.046-17.651 0-30.979-11.889-30.979-30.5 0-16.812 12.369-30.38 30.02-30.38M930.26 61.409h28.578c-.361-5.524-4.203-12.848-14.289-12.848-9.487 0-13.569 7.085-14.289 12.848M233.204 187.539v-72.414h24.753c22.474 0 37.131 15.742 37.131 36.262 0 20.627-14.657 36.152-37.131 36.152zm9.012-8.034h15.741c17.588 0 27.793-12.594 27.793-28.118 0-15.634-9.879-28.229-27.793-28.229h-15.741zM325.703 133.799c15.851 0 25.189 12.376 25.189 28.118v2.063h-42.45c.651 9.879 7.599 18.131 18.891 18.131 5.971 0 12.05-2.388 16.176-6.622l3.908 5.319c-5.211 5.211-12.268 8.034-20.844 8.034-15.526 0-26.709-11.182-26.709-27.576 0-15.2 10.858-27.467 25.839-27.467m-17.261 24.21h34.415c-.108-7.818-5.319-17.48-17.262-17.48-11.182 0-16.719 9.445-17.153 17.48M358.272 174.729c3.474 4.016 10.098 7.49 17.263 7.49 8.034 0 12.376-3.582 12.376-8.686 0-5.753-6.405-7.599-13.462-9.336-8.903-2.063-18.999-4.451-18.999-15.308 0-8.142 7.056-15.09 19.542-15.09 8.902 0 15.2 3.365 19.434 7.599l-3.801 5.645c-3.148-3.8-8.902-6.622-15.633-6.622-7.165 0-11.617 3.257-11.617 7.925 0 5.102 5.972 6.732 12.811 8.36 9.12 2.063 19.651 4.668 19.651 16.285 0 8.794-7.056 15.851-20.628 15.851-8.576 0-15.851-2.606-21.17-8.251zM403.002 120.77c0-3.04 2.497-5.428 5.428-5.428 3.04 0 5.537 2.388 5.537 5.428s-2.497 5.538-5.537 5.538c-2.931 0-5.428-2.497-5.428-5.538m1.411 66.769v-52.438h8.142v52.438zM427.103 194.921c4.342 5.211 9.555 7.166 17.045 7.166 8.685 0 16.829-4.235 16.829-15.742v-7.491c-3.8 5.32-10.206 9.336-17.589 9.336-13.679 0-23.342-10.205-23.342-27.141 0-16.828 9.554-27.25 23.342-27.25 7.057 0 13.355 3.474 17.589 9.227v-7.925h8.142v50.918c0 17.371-12.159 22.799-24.971 22.799-8.902 0-14.982-1.737-21.17-7.816zm33.874-45.381c-2.823-4.559-9.121-8.468-15.635-8.468-10.53 0-16.828 8.36-16.828 19.977 0 11.507 6.298 19.976 16.828 19.976 6.514 0 12.812-4.018 15.635-8.577zM515.259 187.539v-34.307c0-9.229-4.67-12.16-11.726-12.16-6.405 0-12.485 3.909-15.525 8.142v38.325h-8.143v-52.438h8.143v7.6c3.692-4.343 10.857-8.902 18.673-8.902 10.966 0 16.72 5.536 16.72 16.935v36.805zM552.062 170.495c4.777 5.319 12.593 10.313 22.798 10.313 12.92 0 17.045-6.948 17.045-12.486 0-8.685-8.793-11.073-18.348-13.678-11.616-3.04-24.536-6.297-24.536-20.52 0-11.943 10.64-20.085 24.862-20.085 11.074 0 19.651 3.691 25.73 10.098l-5.428 6.622c-5.428-5.971-13.027-8.686-20.953-8.686-8.685 0-14.873 4.669-14.873 11.508 0 7.274 8.359 9.445 17.588 11.942 11.833 3.15 25.296 6.841 25.296 22.039 0 10.532-7.166 21.28-26.709 21.28-12.593 0-21.822-4.777-27.793-11.508z"/><path fill="#fff" d="M606.237 200.676c1.194.543 3.148.869 4.451.869 3.582 0 5.972-1.195 7.816-5.537l3.475-7.926-21.93-52.981h8.793l17.48 42.993 17.371-42.993h8.902l-26.273 63.078c-3.149 7.599-8.468 10.531-15.417 10.639-1.737 0-4.451-.325-5.971-.76zM656.286 174.729c3.474 4.016 10.096 7.49 17.262 7.49 8.034 0 12.376-3.582 12.376-8.686 0-5.753-6.405-7.599-13.463-9.336-8.902-2.063-18.998-4.451-18.998-15.308 0-8.142 7.056-15.09 19.542-15.09 8.902 0 15.199 3.365 19.433 7.599l-3.8 5.645c-3.148-3.8-8.902-6.622-15.633-6.622-7.166 0-11.617 3.257-11.617 7.925 0 5.102 5.971 6.732 12.811 8.36 9.12 2.063 19.65 4.668 19.65 16.285 0 8.794-7.056 15.851-20.627 15.851-8.577 0-15.851-2.606-21.17-8.251zM705.683 176.574v-34.308h-8.685v-7.165h8.685v-14.33h8.143v14.33h10.639v7.165h-10.639v32.571c0 3.908 1.737 6.731 5.319 6.731 2.28 0 4.451-.977 5.537-2.171l2.388 6.079c-2.062 1.954-4.993 3.366-9.77 3.366-7.708 0-11.617-4.451-11.617-12.268M753.777 133.799c15.85 0 25.188 12.376 25.188 28.118v2.063h-42.45c.651 9.879 7.599 18.131 18.891 18.131 5.971 0 12.05-2.388 16.177-6.622l3.908 5.319c-5.212 5.211-12.269 8.034-20.845 8.034-15.526 0-26.708-11.182-26.708-27.576 0-15.2 10.857-27.467 25.839-27.467m-17.262 24.21h34.415c-.108-7.818-5.319-17.48-17.261-17.48-11.183 0-16.72 9.445-17.154 17.48M849.858 187.539V151.93c0-6.624-2.931-10.858-9.662-10.858-5.428 0-11.183 3.909-13.897 8.034v38.433h-8.142V151.93c0-6.624-2.823-10.858-9.663-10.858-5.32 0-10.965 3.909-13.788 8.142v38.325h-8.143v-52.438h8.143v7.6c2.172-3.366 9.228-8.902 16.937-8.902 8.034 0 12.593 4.342 14.113 9.77 2.931-4.777 9.989-9.77 17.588-9.77 9.554 0 14.656 5.319 14.656 15.85v37.89zM205 102.5c0 56.609-45.891 102.5-102.5 102.5S0 159.109 0 102.5 45.89 0 102.5 0 205 45.89 205 102.5"/><path fill="#245fc2" d="M76.66 107.894 43.335 74.556V45.47h116.294l44.656 44.966C198.299 39.511 155.016 0 102.5 0 45.89 0 0 45.908 0 102.538c0 23.089 7.632 44.392 20.505 61.532"/><path fill="#0e324f" d="M159.63 45.395v116.338h-29.073v-66.7L41.072 184.55C58.192 197.39 79.457 205 102.5 205c56.609 0 102.5-45.908 102.5-102.538 0-4.106-.268-8.146-.738-12.125zM43.33 74.555h66.649l-33.325 33.338z"/></svg>
